X:1
T:Title
%%score [ ( 1 2 ) ( 3 4 ) ]
L:1/8
Q:1/4=120
M:4/4
K:Eb
V:1 treble nm="Midi_74"
V:2 treble 
V:3 bass nm="Midi_74"
V:4 bass 
V:1
 B8 | e4 c4 | B8 || G8 | B4 A4 | G4 F4 | G8 |] %7
V:2
 G8 | G4 F2 E2 | D8 || E8 | E4 E4 | E4 D4 | E8 |] %7
V:3
 B,8 | C4 =A,4 | B,8 || B,8 | _D4 C4 | B,4 B,4 | B,8 |] %7
V:4
 E,8 | C,4 F,4 | B,,8 || E,8 | G,,4 A,,4 | B,,4 B,,4 | E,8 |] %7

